packages/foundations/assets/icons/functional/images/file/cloud_upload_24.svg

<svg width="24" height="24" viewBox="0 0 24 24" fill="none" xmlns="http://www.w3.org/2000/svg">
<g clip-path="url(#clip0_185_893)">
<path fill-rule="evenodd" clip-rule="evenodd" d="M12 11L12.0752 11.0028L12.2007 11.0202L12.3121 11.0497L12.4232 11.0937L12.5207 11.146L12.6129 11.2097L12.6592 11.248L12.7071 11.2929L15.2071 13.7929C15.5976 14.1834 15.5976 14.8166 15.2071 15.2071C14.8466 15.5676 14.2794 15.5953 13.8871 15.2903L13.7929 15.2071L13 14.415V19C13 19.5523 12.5523 20 12 20C11.4872 20 11.0645 19.614 11.0067 19.1166L11 19V14.414L10.2071 15.2071C9.84662 15.5676 9.27939 15.5953 8.8871 15.2903L8.79289 15.2071C8.43241 14.8466 8.40468 14.2794 8.7097 13.8871L8.79289 13.7929L11.2929 11.2929C11.3283 11.2575 11.3657 11.2253 11.4047 11.1963L11.5159 11.1247L11.6287 11.0712L11.734 11.0358L11.8515 11.011L11.91 11.004L12 11ZM14 4C16.7865 4 19.154 5.90741 19.816 8.51948L19.8699 8.75175L19.904 8.931L20.0483 9.03684C21.1319 9.86961 21.838 11.1183 21.9754 12.5029L21.9945 12.764L22 13C22 15.5945 20.0193 17.7411 17.4461 17.9791L17.2242 17.9948L16.997 17.9947C16.4856 17.9943 16.0643 17.6093 16.0067 17.1133L16 16.9755C16 16.4754 16.3765 16.0632 16.8615 16.0069L16.9755 16.0003L17.1505 15.9963C18.7424 15.9181 20 14.601 20 13C20 11.9091 19.4136 10.9219 18.4831 10.3926C18.1997 10.2314 18.0127 9.94211 17.982 9.61751C17.7889 7.57532 16.067 6 14 6C12.9764 6 12.0155 6.38473 11.2811 7.06623C10.9893 7.33692 10.5649 7.40888 10.2003 7.24947C9.82557 7.08565 9.41971 7 9 7C7.34315 7 6 8.34315 6 10C6 10.084 6.00343 10.1653 6.01023 10.2429C6.04682 10.6608 5.81877 11.0571 5.43911 11.2353C4.56782 11.6445 4 12.5206 4 13.5C4 14.7741 4.95607 15.8332 6.17456 15.9811L6.33492 15.9952L6.5 16H7.0035C7.55385 16 8 16.4461 8 16.9965C8 17.5469 7.55388 17.9931 7.0035 17.9932L6.25397 17.9934C3.94549 17.8685 2.114 16.0113 2.00512 13.7164L2 13.5C2 12.1133 2.63322 10.8409 3.66672 10.0032L3.85321 9.85997L4.006 9.754L4.01835 9.56858C4.22457 7.15564 6.14447 5.23181 8.55566 5.01947L8.78311 5.00462L9 5C9.29862 5 9.59388 5.0263 9.8831 5.07791L10.1702 5.13791L10.401 5.2L10.5745 5.0732C11.4902 4.43521 12.8591 4.05386 14 4Z" fill="#1A1C1F"/>
</g>
<defs>
<clipPath id="clip0_185_893">
<rect width="24" height="24" fill="white"/>
</clipPath>
</defs>
</svg>

<svg xmlns="http://www.w3.org/2000/svg" width="24" height="24" fill="none"><g clip-path="url(#a)"><path fill="#1A1C1F" fill-rule="evenodd" d="m12 11 .075.003.126.017.111.03.111.044.098.052.092.064.046.038.048.045 2.5 2.5a1 1 0 0 1-1.32 1.497l-.094-.083-.793-.792V19a1 1 0 0 1-1.993.117L11 19v-4.586l-.793.793a1 1 0 0 1-1.32.083l-.094-.083a1 1 0 0 1-.083-1.32l.083-.094 2.5-2.5q.053-.053.112-.097l.11-.071.114-.054.105-.035.117-.025.059-.007zm2-7a6 6 0 0 1 5.816 4.52l.054.232.034.179.144.106a5 5 0 0 1 1.927 3.466l.02.261L22 13a5.004 5.004 0 0 1-4.554 4.98l-.222.015h-.227a1 1 0 0 1-.99-.882L16 16.976c0-.5.377-.913.861-.97l.114-.006.175-.004a3 3 0 0 0 1.333-5.603 1 1 0 0 1-.501-.775 4 4 0 0 0-6.7-2.552 1 1 0 0 1-1.082.183 3 3 0 0 0-4.19 2.993 1 1 0 0 1-.57.993A2.5 2.5 0 0 0 4 13.5c0 1.274.956 2.333 2.175 2.481l.16.014L6.5 16h.503a.996.996 0 1 1 0 1.993h-.749a4.5 4.5 0 0 1-4.249-4.277L2 13.5c0-1.387.633-2.66 1.667-3.497l.186-.143.153-.106.012-.185a5 5 0 0 1 4.538-4.55l.227-.014L9 5q.449 0 .883.078l.287.06.231.062.174-.127C11.49 4.435 12.859 4.053 14 4" clip-rule="evenodd"/></g><defs><clipPath id="a"><path fill="#fff" d="M0 0h24v24H0z"/></clipPath></defs></svg>
